packages/gestalt-icons-android/vr-theme/ic_vr_service-yahoo_gestalt.svg

<svg width="24" height="24" viewBox="0 0 24 24" fill="none" xmlns="http://www.w3.org/2000/svg">
<path fill-rule="evenodd" clip-rule="evenodd" d="M20.641 17.3396L20.65 18.8801L21.376 18.942L22.162 19L22.394 17.4909L21.564 17.4526L20.641 17.3396ZM20.889 16.3287L22.327 16.4397L24 10.1304C23.721 10.1215 21.18 9.88674 20.851 9.82386L20.889 16.3287ZM21.618 8.34232H19.886C19.662 8.38947 19.466 8.43172 19.332 8.45923C18.744 8.61347 13.372 12.6641 13.017 13.6584C12.94 14.0022 13.026 17.3308 13.103 17.8309C13.458 17.9075 16.013 17.8387 16.482 17.9173L16.425 18.945C15.968 18.9116 12.72 18.9194 10.865 18.9194C9.924 18.9194 6.898 19.0206 5.968 18.9931L6.143 18.0126C6.653 17.9782 8.764 18.105 9.227 17.6275C9.457 17.3878 9.385 14.2253 9.308 13.6898C9.112 13.1171 4.403 7.38049 3.172 6.44126H0V5H10.696V5.09923C10.706 5.09923 10.723 5.10218 10.733 5.10316L10.696 5.34386V6.44126H7.472C8.908 8.48477 10.969 10.9527 11.849 12.1366L16.157 8.34232H13.596L13.235 6.90302H22.616L22.545 7.00421C22.553 7.00421 22.569 7.00716 22.579 7.00716L21.909 7.9513C21.903 7.9513 21.892 7.95326 21.887 7.95621L21.618 8.34232Z" fill="black"/>
</svg>

<svg xmlns="http://www.w3.org/2000/svg" width="24" height="24"><path d="m21.56 17.45.83.04-.23 1.51-.78-.06-.73-.06v-1.54zm-.7-7.63c.32.07 2.86.3 3.14.31l-1.67 6.31-1.44-.11zm.76-1.48h-1.73l-.56.12c-.59.15-5.96 4.2-6.31 5.2-.08.34 0 3.67.08 4.17.36.08 2.91 0 3.38.09l-.06 1.02c-.45-.03-3.7-.02-5.56-.02-.94 0-3.96.1-4.9.07l.18-.98c.51-.03 2.62.1 3.09-.38.23-.24.16-3.4.08-3.94-.2-.57-4.9-6.31-6.14-7.25H0V5h10.7v.1h.03l-.03.24v1.1H7.47c1.44 2.04 3.5 4.51 4.38 5.7l4.3-3.8H13.6l-.36-1.44h9.38l-.08.1h.04l-.67.95h-.02z"/></svg>
